src/assets/filled/Star.svg

<svg width="24" height="24" viewBox="0 0 24 24"  xmlns="http://www.w3.org/2000/svg">
<path d="M15.3899 5.21028L16.7999 8.03028C16.9899 8.42028 17.4999 8.79028 17.9299 8.87028L20.4799 9.29028C22.1099 9.56028 22.4899 10.7403 21.3199 11.9203L19.3299 13.9103C18.9999 14.2403 18.8099 14.8903 18.9199 15.3603L19.4899 17.8203C19.9399 19.7603 18.8999 20.5203 17.1899 19.5003L14.7999 18.0803C14.3699 17.8203 13.6499 17.8203 13.2199 18.0803L10.8299 19.5003C9.11994 20.5103 8.07994 19.7603 8.52994 17.8203L9.09994 15.3603C9.18994 14.8803 8.99994 14.2303 8.66994 13.9003L6.67994 11.9103C5.50994 10.7403 5.88994 9.56028 7.51994 9.28028L10.0699 8.86028C10.4999 8.79028 11.0099 8.41028 11.1999 8.02028L12.6099 5.20028C13.3799 3.68028 14.6199 3.68028 15.3899 5.21028Z" />
<path d="M8 5.75H2C1.59 5.75 1.25 5.41 1.25 5C1.25 4.59 1.59 4.25 2 4.25H8C8.41 4.25 8.75 4.59 8.75 5C8.75 5.41 8.41 5.75 8 5.75Z" />
<path d="M5 19.75H2C1.59 19.75 1.25 19.41 1.25 19C1.25 18.59 1.59 18.25 2 18.25H5C5.41 18.25 5.75 18.59 5.75 19C5.75 19.41 5.41 19.75 5 19.75Z" />
<path d="M3 12.75H2C1.59 12.75 1.25 12.41 1.25 12C1.25 11.59 1.59 11.25 2 11.25H3C3.41 11.25 3.75 11.59 3.75 12C3.75 12.41 3.41 12.75 3 12.75Z" />
</svg>

<?xml version="1.0" encoding="UTF-8"?>
<svg width="24" height="24" viewBox="0 0 24 24" xmlns="http://www.w3.org/2000/svg">
 <path d="m15.39 5.2103 1.41 2.82c0.19 0.39 0.7 0.76 1.13 0.84l2.55 0.42c1.63 0.27 2.01 1.45 0.84 2.63l-1.99 1.99c-0.33 0.33-0.52 0.98-0.41 1.45l0.57 2.46c0.45 1.94-0.59 2.7-2.3 1.68l-2.39-1.42c-0.43-0.26-1.15-0.26-1.58 0l-2.39 1.42c-1.71 1.01-2.75 0.26-2.3-1.68l0.57-2.46c0.09-0.48-0.1-1.13-0.43-1.46l-1.99-1.99c-1.17-1.17-0.79-2.35 0.84-2.63l2.55-0.42c0.43-0.07 0.94-0.45 1.13-0.84l1.41-2.82c0.77-1.52 2.01-1.52 2.78 0.01z"/>
 <path d="m8 5.75h-6c-0.41 0-0.75-0.34-0.75-0.75s0.34-0.75 0.75-0.75h6c0.41 0 0.75 0.34 0.75 0.75s-0.34 0.75-0.75 0.75z"/>
 <path d="m5 19.75h-3c-0.41 0-0.75-0.34-0.75-0.75s0.34-0.75 0.75-0.75h3c0.41 0 0.75 0.34 0.75 0.75s-0.34 0.75-0.75 0.75z"/>
 <path d="m3 12.75h-1c-0.41 0-0.75-0.34-0.75-0.75s0.34-0.75 0.75-0.75h1c0.41 0 0.75 0.34 0.75 0.75s-0.34 0.75-0.75 0.75z"/>
</svg>
